packages/icons/src/input.svg

<svg width="15" height="15" viewBox="0 0 15 15" fill="none" xmlns="http://www.w3.org/2000/svg">
  <path
    fill-rule="evenodd"
    clip-rule="evenodd"
    d="M6.5 1C6.22386 1 6 1.22386 6 1.5C6 1.77614 6.22386 2 6.5 2C7.12671 2 7.45718 2.20028 7.65563 2.47812C7.8781 2.78957 8 3.28837 8 4V11C8 11.7116 7.8781 12.2104 7.65563 12.5219C7.45718 12.7997 7.12671 13 6.5 13C6.22386 13 6 13.2239 6 13.5C6 13.7761 6.22386 14 6.5 14C7.37329 14 8.04282 13.7003 8.46937 13.1031C8.47976 13.0886 8.48997 13.0739 8.5 13.0591C8.51003 13.0739 8.52024 13.0886 8.53063 13.1031C8.95718 13.7003 9.62671 14 10.5 14C10.7761 14 11 13.7761 11 13.5C11 13.2239 10.7761 13 10.5 13C9.87329 13 9.54282 12.7997 9.34437 12.5219C9.1219 12.2104 9 11.7116 9 11V4C9 3.28837 9.1219 2.78957 9.34437 2.47812C9.54282 2.20028 9.87329 2 10.5 2C10.7761 2 11 1.77614 11 1.5C11 1.22386 10.7761 1 10.5 1C9.62671 1 8.95718 1.29972 8.53063 1.89688C8.52024 1.91143 8.51003 1.92611 8.5 1.9409C8.48997 1.92611 8.47976 1.91143 8.46937 1.89688C8.04282 1.29972 7.37329 1 6.5 1ZM14 5H11V4H14C14.5523 4 15 4.44772 15 5V10C15 10.5523 14.5523 11 14 11H11V10H14V5ZM6 4V5H1L1 10H6V11H1C0.447715 11 0 10.5523 0 10V5C0 4.44772 0.447715 4 1 4H6Z"
    fill="currentColor"
  />
</svg>

<svg xmlns="http://www.w3.org/2000/svg" width="15" height="15" fill="none"><path fill="currentColor" fill-rule="evenodd" d="M6.5 1a.5.5 0 0 0 0 1c.627 0 .957.2 1.156.478C7.878 2.79 8 3.288 8 4v7c0 .712-.122 1.21-.344 1.522-.199.278-.53.478-1.156.478a.5.5 0 0 0 0 1c.873 0 1.543-.3 1.97-.897l.03-.044.03.044c.427.597 1.097.897 1.97.897a.5.5 0 0 0 0-1c-.627 0-.957-.2-1.156-.478C9.122 12.21 9 11.712 9 11V4c0-.712.122-1.21.344-1.522C9.543 2.2 9.874 2 10.5 2a.5.5 0 0 0 0-1c-.873 0-1.543.3-1.97.897l-.03.044-.03-.044C8.042 1.3 7.372 1 6.5 1M14 5h-3V4h3a1 1 0 0 1 1 1v5a1 1 0 0 1-1 1h-3v-1h3zM6 4v1H1v5h5v1H1a1 1 0 0 1-1-1V5a1 1 0 0 1 1-1z" clip-rule="evenodd"/></svg>
